!!!COM: Schubert, Franz
!!!CNT: Deutscher
!!!TXO: Deutsch
!!!LYR: Friedrich Rochlitz
!!!OTL: "An die Laute"
!!!OPS: Op. 81
!!!ONM: No. 2
!!!ODT: 1827/
!!NB: Vocal melody only encoded.
!!NB: Original key: D major 
**kern	**silbe
*staff1	*
*clefG2	*
*k[]	*
*M6/8	*
*MM[Etwas geschwind]	*
=5	=5
{4g	{Lei-
8g	-ser,
8.g	lei-
16a	|
8g	-ser,
=6	=6
4g	klei-
8cc	-ne
4ee	Lau-
8cc}	-te,}
=7	=7
{4e	{flu2-
8e	-stre,
8.e	was
16f	|
8e	ich
=8	=8
4e	dir
8a	ver-
4cc	-trau-
8a}	-te,}
=9	=9
{4f#	{dort
8f#	zu
8g	je-
8f#	|
8g	-nem
=10	=10
[4.b	Fen-
8b]	|
8cc	|
8f#	-ster
=11	=11
4g}	hin!}
8r	.
4r	.
8r	.
=12	=12
2.r	.
=13	=13
{4a	{Wie
8a	die
8.a	Wel-
16b-	|
8a	-len
=14	=14
4cc	sanf-
8b-	-ter
4a	Lu2f-
8g}	-te,}
=15	=15
{4a	{Mon-
8a	-den-
8.a	-glanz
16b-	|
8a	und
=16	=16
4cc	Blu-
8b-	-men-
4a	-du2f-
8g}	-te,}
=17	=17
{4a	{send'
8a	es
8a	der
8dd	|
8cc	Ge-
=18	=18
8.b	-bie-
16a	|
8b	-te-
4.cc}	-rin,}
=19	=19
{8b	{send'
8a	|
8a	es
8.cc	der
16a	|
16a	Ge-
16f	|
=20	=20
4d	-bie-
8g	-te-
4c}	-rin!}
8r	.
==	==
*-	*-